icons/paperclip-16.svg

<svg xmlns="http://www.w3.org/2000/svg" width="16" height="16" viewBox="0 0 16 16"><path fill-rule="evenodd" d="M12.212 3.02a1.75 1.75 0 00-2.478.003l-5.83 5.83a3.007 3.007 0 00-.88 2.127c0 .795.315 1.551.88 2.116.567.567 1.333.89 2.126.89.79 0 1.548-.321 2.116-.89l5.48-5.48a.75.75 0 011.061 1.06l-5.48 5.48a4.494 4.494 0 01-3.177 1.33c-1.2 0-2.345-.487-3.187-1.33a4.485 4.485 0 01-1.32-3.177c0-1.195.475-2.341 1.32-3.186l5.83-5.83a3.25 3.25 0 015.553 2.297c0 .863-.343 1.691-.953 2.301L7.439 12.39a2.01 2.01 0 01-1.416.593 2 2 0 01-1.412-.593 1.991 1.991 0 010-2.828l5.48-5.48a.75.75 0 011.06 1.06l-5.48 5.48a.491.491 0 000 .707.5.5 0 00.352.154.509.509 0 00.356-.154l5.833-5.827a1.755 1.755 0 000-2.481z"/></svg>

<svg xmlns="http://www.w3.org/2000/svg" width="16" height="16" viewBox="0 0 16 16">
  <defs/>
  <path d="M12.212,3.02 C11.883,2.691 11.437,2.507 10.972,2.507 C10.507,2.508 10.062,2.693 9.734,3.023 L3.904,8.853 C3.34,9.417 3.024,10.182 3.024,10.98 C3.024,11.775 3.339,12.531 3.904,13.096 C4.471,13.663 5.237,13.986 6.03,13.986 C6.82,13.986 7.578,13.665 8.146,13.096 L13.626,7.616 C13.92,7.332 14.388,7.335 14.677,7.625 C14.967,7.914 14.971,8.382 14.687,8.676 L9.207,14.156 C8.367,15.004 7.224,15.482 6.03,15.486 C4.83,15.486 3.685,14.999 2.843,14.156 C1.998,13.315 1.523,12.171 1.523,10.979 C1.523,9.784 1.998,8.638 2.843,7.793 L8.673,1.963 C9.602,1.03 11.002,0.75 12.218,1.253 C13.435,1.756 14.228,2.944 14.226,4.26 C14.226,5.123 13.883,5.951 13.273,6.561 L7.439,12.39 C7.064,12.767 6.555,12.98 6.023,12.983 C5.492,12.981 4.984,12.767 4.611,12.39 C4.234,12.016 4.022,11.507 4.022,10.976 C4.022,10.445 4.234,9.936 4.611,9.562 L10.091,4.082 C10.387,3.807 10.847,3.815 11.133,4.1 C11.418,4.386 11.426,4.846 11.151,5.142 L5.671,10.622 C5.575,10.715 5.521,10.842 5.521,10.976 C5.521,11.109 5.575,11.236 5.671,11.329 C5.763,11.425 5.89,11.481 6.023,11.483 C6.157,11.481 6.285,11.425 6.379,11.329 L12.212,5.502 C12.897,4.817 12.897,3.706 12.212,3.021 Z"/>
</svg>
